static/img/kroki/7cd9b66d4af927236b349c31c6d69178.svg

<?xml version="1.0" encoding="us-ascii" standalone="no"?><svg xmlns="http://www.w3.org/2000/svg" xmlns:xlink="http://www.w3.org/1999/xlink" contentStyleType="text/css" height="1106px" preserveAspectRatio="none" style="width:385px;height:1106px;" version="1.1" viewBox="0 0 385 1106" width="385px" zoomAndPan="magnify"><defs/><g><!--class digitalocean_region--><g id="elem_digitalocean_region"><rect codeLine="23" fill="#3D176E" height="152.9766" id="digitalocean_region" rx="2.5" ry="2.5" style="stroke:#000D19;stroke-width:0.5;" width="270" x="25.5" y="946.61"/><ellipse cx="69.75" cy="966.5045" fill="#ADD1B2" rx="11" ry="11" style="stroke:#181818;stroke-width:1.0;"/><path d="M72.7188,972.1452 Q72.1406,972.442 71.5,972.5827 Q70.8594,972.7389 70.1563,972.7389 Q67.6563,972.7389 66.3281,971.0983 Q65.0156,969.442 65.0156,966.317 Q65.0156,963.192 66.3281,961.5358 Q67.6563,959.8795 70.1563,959.8795 Q70.8594,959.8795 71.5,960.0358 Q72.1563,960.192 72.7188,960.4889 L72.7188,963.2077 Q72.0938,962.6295 71.5,962.3639 Q70.9063,962.0827 70.2813,962.0827 Q68.9375,962.0827 68.25,963.1608 Q67.5625,964.2233 67.5625,966.317 Q67.5625,968.4108 68.25,969.4889 Q68.9375,970.5514 70.2813,970.5514 Q70.9063,970.5514 71.5,970.2858 Q72.0938,970.0045 72.7188,969.4264 L72.7188,972.1452 Z " fill="#000000"/><text fill="#D9B8FF" font-family="Helvetica" font-size="17" lengthAdjust="spacing" textLength="163" x="95.25" y="972.3898">digitalocean_region</text><line style="stroke:#000D19;stroke-width:0.5;" x1="26.5" x2="294.5" y1="986.3991" y2="986.3991"/><text fill="#D9B8FF" font-family="sans-serif" font-size="14" font-weight="bold" lengthAdjust="spacing" textLength="190" x="36.5" y="1008.3942">do_region_droplet_sizes</text><text fill="#D9B8FF" font-family="sans-serif" font-size="14" lengthAdjust="spacing" textLength="58" x="226.5" y="1008.3942">: string[]</text><text fill="#D9B8FF" font-family="sans-serif" font-size="14" font-weight="bold" lengthAdjust="spacing" textLength="152" x="36.5" y="1034.6911">do_region_features</text><text fill="#D9B8FF" font-family="sans-serif" font-size="14" lengthAdjust="spacing" textLength="58" x="188.5" y="1034.6911">: string[]</text><text fill="#D9B8FF" font-family="sans-serif" font-size="14" font-weight="bold" lengthAdjust="spacing" textLength="118" x="36.5" y="1060.9879">do_region_slug</text><text fill="#D9B8FF" font-family="sans-serif" font-size="14" lengthAdjust="spacing" textLength="48" x="154.5" y="1060.9879">: string</text><text fill="#D9B8FF" font-family="sans-serif" font-size="14" font-weight="bold" lengthAdjust="spacing" textLength="88" x="36.5" y="1087.2848">is_available</text><text fill="#D9B8FF" font-family="sans-serif" font-size="14" lengthAdjust="spacing" textLength="65" x="124.5" y="1087.2848">: boolean</text></g><!--class digitalocean_resource--><g id="elem_digitalocean_resource"><rect codeLine="29" fill="#3D176E" height="74.0859" id="digitalocean_resource" rx="2.5" ry="2.5" style="stroke:#000D19;stroke-width:0.5;" width="223" x="7" y="538.55"/><ellipse cx="22" cy="558.4445" fill="#ADD1B2" rx="11" ry="11" style="stroke:#181818;stroke-width:1.0;"/><path d="M24.9688,564.0852 Q24.3906,564.382 23.75,564.5227 Q23.1094,564.6789 22.4063,564.6789 Q19.9063,564.6789 18.5781,563.0383 Q17.2656,561.382 17.2656,558.257 Q17.2656,555.132 18.5781,553.4758 Q19.9063,551.8195 22.4063,551.8195 Q23.1094,551.8195 23.75,551.9758 Q24.4063,552.132 24.9688,552.4289 L24.9688,555.1477 Q24.3438,554.5695 23.75,554.3039 Q23.1563,554.0227 22.5313,554.0227 Q21.1875,554.0227 20.5,555.1008 Q19.8125,556.1633 19.8125,558.257 Q19.8125,560.3508 20.5,561.4289 Q21.1875,562.4914 22.5313,562.4914 Q23.1563,562.4914 23.75,562.2258 Q24.3438,561.9445 24.9688,561.3664 L24.9688,564.0852 Z " fill="#000000"/><text fill="#D9B8FF" font-family="Helvetica" font-size="17" lengthAdjust="spacing" textLength="181" x="41" y="564.3298">digitalocean_resource</text><line style="stroke:#000D19;stroke-width:0.5;" x1="8" x2="229" y1="578.3391" y2="578.3391"/><text fill="#D9B8FF" font-family="sans-serif" font-size="14" font-weight="bold" lengthAdjust="spacing" textLength="27" x="18" y="600.3342">urn</text><text fill="#D9B8FF" font-family="sans-serif" font-size="14" lengthAdjust="spacing" textLength="48" x="45" y="600.3342">: string</text></g><!--class phantom_resource--><g id="elem_phantom_resource"><rect codeLine="32" fill="#3D176E" height="39.7891" id="phantom_resource" rx="2.5" ry="2.5" style="stroke:#000D19;stroke-width:0.5;" width="198" x="180.5" y="438.76"/><ellipse cx="195.5" cy="458.6545" fill="#ADD1B2" rx="11" ry="11" style="stroke:#181818;stroke-width:1.0;"/><path d="M198.4688,464.2952 Q197.8906,464.592 197.25,464.7327 Q196.6094,464.8889 195.9063,464.8889 Q193.4063,464.8889 192.0781,463.2483 Q190.7656,461.592 190.7656,458.467 Q190.7656,455.342 192.0781,453.6858 Q193.4063,452.0295 195.9063,452.0295 Q196.6094,452.0295 197.25,452.1858 Q197.9063,452.342 198.4688,452.6389 L198.4688,455.3577 Q197.8438,454.7795 197.25,454.5139 Q196.6563,454.2327 196.0313,454.2327 Q194.6875,454.2327 194,455.3108 Q193.3125,456.3733 193.3125,458.467 Q193.3125,460.5608 194,461.6389 Q194.6875,462.7014 196.0313,462.7014 Q196.6563,462.7014 197.25,462.4358 Q197.8438,462.1545 198.4688,461.5764 L198.4688,464.2952 Z " fill="#000000"/><text fill="#D9B8FF" font-family="Helvetica" font-size="17" lengthAdjust="spacing" textLength="156" x="214.5" y="464.5398">phantom_resource</text></g><!--class region--><g id="elem_region"><rect codeLine="35" fill="#3D176E" height="152.9766" id="region" rx="2.5" ry="2.5" style="stroke:#000D19;stroke-width:0.5;" width="195" x="181" y="672.64"/><ellipse cx="242.75" cy="692.5345" fill="#ADD1B2" rx="11" ry="11" style="stroke:#181818;stroke-width:1.0;"/><path d="M245.7188,698.1752 Q245.1406,698.472 244.5,698.6127 Q243.8594,698.7689 243.1563,698.7689 Q240.6563,698.7689 239.3281,697.1283 Q238.0156,695.472 238.0156,692.347 Q238.0156,689.222 239.3281,687.5658 Q240.6563,685.9095 243.1563,685.9095 Q243.8594,685.9095 244.5,686.0658 Q245.1563,686.222 245.7188,686.5189 L245.7188,689.2377 Q245.0938,688.6595 244.5,688.3939 Q243.9063,688.1127 243.2813,688.1127 Q241.9375,688.1127 241.25,689.1908 Q240.5625,690.2533 240.5625,692.347 Q240.5625,694.4408 241.25,695.5189 Q241.9375,696.5814 243.2813,696.5814 Q243.9063,696.5814 244.5,696.3158 Q245.0938,696.0345 245.7188,695.4564 L245.7188,698.1752 Z " fill="#000000"/><text fill="#D9B8FF" font-family="Helvetica" font-size="17" lengthAdjust="spacing" textLength="53" x="268.25" y="698.4198">region</text><line style="stroke:#000D19;stroke-width:0.5;" x1="182" x2="375" y1="712.4291" y2="712.4291"/><text fill="#D9B8FF" font-family="sans-serif" font-size="14" font-weight="bold" lengthAdjust="spacing" textLength="59" x="192" y="734.4242">latitude</text><text fill="#D9B8FF" font-family="sans-serif" font-size="14" lengthAdjust="spacing" textLength="57" x="251" y="734.4242">: double</text><text fill="#D9B8FF" font-family="sans-serif" font-size="14" font-weight="bold" lengthAdjust="spacing" textLength="84" x="192" y="760.7211">long_name</text><text fill="#D9B8FF" font-family="sans-serif" font-size="14" lengthAdjust="spacing" textLength="48" x="276" y="760.7211">: string</text><text fill="#D9B8FF" font-family="sans-serif" font-size="14" font-weight="bold" lengthAdjust="spacing" textLength="74" x="192" y="787.0179">longitude</text><text fill="#D9B8FF" font-family="sans-serif" font-size="14" lengthAdjust="spacing" textLength="57" x="266" y="787.0179">: double</text><text fill="#D9B8FF" font-family="sans-serif" font-size="14" font-weight="bold" lengthAdjust="spacing" textLength="108" x="192" y="813.3148">region_in_use</text><text fill="#D9B8FF" font-family="sans-serif" font-size="14" lengthAdjust="spacing" textLength="65" x="300" y="813.3148">: boolean</text></g><!--class resource--><g id="elem_resource"><rect codeLine="41" fill="#3D176E" height="310.7578" id="resource" rx="2.5" ry="2.5" style="stroke:#000D19;stroke-width:0.5;" width="227" x="46" y="7"/><ellipse cx="114.75" cy="26.8945" fill="#ADD1B2" rx="11" ry="11" style="stroke:#181818;stroke-width:1.0;"/><path d="M117.7188,32.5352 Q117.1406,32.832 116.5,32.9727 Q115.8594,33.1289 115.1563,33.1289 Q112.6563,33.1289 111.3281,31.4883 Q110.0156,29.832 110.0156,26.707 Q110.0156,23.582 111.3281,21.9258 Q112.6563,20.2695 115.1563,20.2695 Q115.8594,20.2695 116.5,20.4258 Q117.1563,20.582 117.7188,20.8789 L117.7188,23.5977 Q117.0938,23.0195 116.5,22.7539 Q115.9063,22.4727 115.2813,22.4727 Q113.9375,22.4727 113.25,23.5508 Q112.5625,24.6133 112.5625,26.707 Q112.5625,28.8008 113.25,29.8789 Q113.9375,30.9414 115.2813,30.9414 Q115.9063,30.9414 116.5,30.6758 Q117.0938,30.3945 117.7188,29.8164 L117.7188,32.5352 Z " fill="#000000"/><text fill="#D9B8FF" font-family="Helvetica" font-size="17" lengthAdjust="spacing" textLength="71" x="140.25" y="32.7798">resource</text><line style="stroke:#000D19;stroke-width:0.5;" x1="47" x2="272" y1="46.7891" y2="46.7891"/><text fill="#D9B8FF" font-family="sans-serif" font-size="14" font-weight="bold" lengthAdjust="spacing" textLength="29" x="57" y="68.7842">age</text><text fill="#D9B8FF" font-family="sans-serif" font-size="14" lengthAdjust="spacing" textLength="66" x="86" y="68.7842">: duration</text><text fill="#D9B8FF" font-family="sans-serif" font-size="14" font-weight="bold" lengthAdjust="spacing" textLength="43" x="57" y="95.0811">atime</text><text fill="#D9B8FF" font-family="sans-serif" font-size="14" lengthAdjust="spacing" textLength="70" x="100" y="95.0811">: datetime</text><text fill="#D9B8FF" font-family="sans-serif" font-size="14" font-weight="bold" lengthAdjust="spacing" textLength="43" x="57" y="121.3779">ctime</text><text fill="#D9B8FF" font-family="sans-serif" font-size="14" lengthAdjust="spacing" textLength="70" x="100" y="121.3779">: datetime</text><text fill="#D9B8FF" font-family="sans-serif" font-size="14" font-weight="bold" lengthAdjust="spacing" textLength="14" x="57" y="147.6748">id</text><text fill="#D9B8FF" font-family="sans-serif" font-size="14" lengthAdjust="spacing" textLength="48" x="71" y="147.6748">: string</text><text fill="#D9B8FF" font-family="sans-serif" font-size="14" font-weight="bold" lengthAdjust="spacing" textLength="33" x="57" y="173.9717">kind</text><text fill="#D9B8FF" font-family="sans-serif" font-size="14" lengthAdjust="spacing" textLength="48" x="90" y="173.9717">: string</text><text fill="#D9B8FF" font-family="sans-serif" font-size="14" font-weight="bold" lengthAdjust="spacing" textLength="90" x="57" y="200.2686">last_access</text><text fill="#D9B8FF" font-family="sans-serif" font-size="14" lengthAdjust="spacing" textLength="66" x="147" y="200.2686">: duration</text><text fill="#D9B8FF" font-family="sans-serif" font-size="14" font-weight="bold" lengthAdjust="spacing" textLength="90" x="57" y="226.5654">last_update</text><text fill="#D9B8FF" font-family="sans-serif" font-size="14" lengthAdjust="spacing" textLength="66" x="147" y="226.5654">: duration</text><text fill="#D9B8FF" font-family="sans-serif" font-size="14" font-weight="bold" lengthAdjust="spacing" textLength="48" x="57" y="252.8623">mtime</text><text fill="#D9B8FF" font-family="sans-serif" font-size="14" lengthAdjust="spacing" textLength="70" x="105" y="252.8623">: datetime</text><text fill="#D9B8FF" font-family="sans-serif" font-size="14" font-weight="bold" lengthAdjust="spacing" textLength="43" x="57" y="279.1592">name</text><text fill="#D9B8FF" font-family="sans-serif" font-size="14" lengthAdjust="spacing" textLength="48" x="100" y="279.1592">: string</text><text fill="#D9B8FF" font-family="sans-serif" font-size="14" font-weight="bold" lengthAdjust="spacing" textLength="34" x="57" y="305.4561">tags</text><text fill="#D9B8FF" font-family="sans-serif" font-size="14" lengthAdjust="spacing" textLength="171" x="91" y="305.4561">: dictionary[string, string]</text></g><!--reverse link digitalocean_resource to digitalocean_region--><g id="link_digitalocean_resource_digitalocean_region"><path codeLine="53" d="M123.6276,630.9707 C130.4576,703.5007 144.21,849.29 153.34,946.18 " fill="none" id="digitalocean_resource-backto-digitalocean_region" style="stroke:#FFAF37;stroke-width:2.0;"/><polygon fill="none" points="121.94,613.05,117.654,631.5332,129.6011,630.4082,121.94,613.05" style="stroke:#FFAF37;stroke-width:2.0;"/></g><!--reverse link region to digitalocean_region--><g id="link_region_digitalocean_region"><path codeLine="54" d="M238.4642,842.4021 C222.1642,879.9621 209.7,908.7 193.4,946.28 " fill="none" id="region-backto-digitalocean_region" style="stroke:#FFAF37;stroke-width:2.0;"/><polygon fill="none" points="245.63,825.89,232.9601,840.0135,243.9682,844.7908,245.63,825.89" style="stroke:#FFAF37;stroke-width:2.0;"/></g><!--reverse link resource to digitalocean_resource--><g id="link_resource_digitalocean_resource"><path codeLine="55" d="M142.2736,336.1711 C134.3036,416.0811 127.04,488.99 122.13,538.2 " fill="none" id="resource-backto-digitalocean_resource" style="stroke:#FFAF37;stroke-width:2.0;"/><polygon fill="none" points="144.06,318.26,136.3032,335.5757,148.244,336.7666,144.06,318.26" style="stroke:#FFAF37;stroke-width:2.0;"/></g><!--reverse link resource to phantom_resource--><g id="link_resource_phantom_resource"><path codeLine="56" d="M229.2862,334.5177 C248.9762,382.8077 261.44,413.37 271.76,438.68 " fill="none" id="resource-backto-phantom_resource" style="stroke:#FFAF37;stroke-width:2.0;"/><polygon fill="none" points="222.49,317.85,223.7303,336.7831,234.8421,332.2523,222.49,317.85" style="stroke:#FFAF37;stroke-width:2.0;"/></g><!--reverse link phantom_resource to region--><g id="link_phantom_resource_region"><path codeLine="57" d="M279.3698,497.0299 C279.2398,535.8799 278.99,607.13 278.76,672.22 " fill="none" id="phantom_resource-backto-region" style="stroke:#FFAF37;stroke-width:2.0;"/><polygon fill="none" points="279.43,479.03,273.3698,497.0098,285.3697,497.05,279.43,479.03" style="stroke:#FFAF37;stroke-width:2.0;"/></g><!--SRC=[XPFBRjim44Nt-We1sHarO3Te7HVTf0QATXCKJNT188p8aKoO8eNXC87x-FUIbf9GZpWxQUxHt3iSQgyavjYqVCmRR4eabxc3CYqGDFaraNtSMMqflwWgg2utO_6hDVmcS0CDvjzGFo0h0MFYrrw9Wq7dylU9z0N4eIRhZUpQCu5nGKB32RNJuDmrCwdICoPXvBQyggenEMvwSIdNcuyumIn9f1vPhLPolHqZRrgTdVkPk5M_CL-dXtPZ6ISn9nOdwcpAI2GX9uC-wQzc_05IAbFd7vBQpouJ6QH1_NOFqZv6kWBjKXl7I6ZvsE9kCXLkhsIrcOM_lmPd8XvTBbMj6BGL2AOWh9Kr-PziiP2sVoiasLOZ5owSi5iiFeNc50BUtG-e2e4zdG6SzlMB62Jb2dW0fQ7K68NIMXr2PF_capdhIU0fcoUJT7hYspqOjasAFcl9O1fOiPSdIsbzC8z5Q-h2X0KE4iRgbEtdKQRmRZRu82lKtTUUWgyriSAgyv7069z3JSpKb1o42RiT5e8N5o14-Dz73YV5jx7NI6bcV2PZCzHTHoNYPq37kqvxrpFtOTJvxNp-krmkv-vKrc_W772kHwUDeV7AiyaTwBZUuZy0]--></g></svg>

<svg xmlns="http://www.w3.org/2000/svg" width="385" height="1106" viewBox="0 0 385 1106"><rect width="270" height="152.977" x="25.5" y="946.61" fill="#3D176E" rx="2.5" ry="2.5" style="stroke:#000d19;stroke-width:.5"/><circle cx="69.75" cy="966.505" r="11" fill="#ADD1B2" style="stroke:#181818;stroke-width:1"/><path d="M72.719 972.145q-.578.297-1.219.438-.64.156-1.344.156-2.5 0-3.828-1.64-1.312-1.657-1.312-4.782t1.312-4.781q1.328-1.656 3.828-1.656.703 0 1.344.156.656.156 1.219.453v2.719q-.625-.578-1.219-.844-.594-.281-1.219-.281-1.344 0-2.031 1.078-.687 1.062-.687 3.156t.687 3.172q.688 1.062 2.031 1.062.625 0 1.219-.265.594-.281 1.219-.86z"/><text x="95.25" y="972.39" fill="#D9B8FF" font-family="Helvetica" font-size="17" textLength="163">digitalocean_region</text><path d="M26.5 986.399h268" style="stroke:#000d19;stroke-width:.5"/><text x="36.5" y="1008.394" fill="#D9B8FF" font-family="sans-serif" font-size="14" font-weight="bold" textLength="190">do_region_droplet_sizes</text><text x="226.5" y="1008.394" fill="#D9B8FF" font-family="sans-serif" font-size="14" textLength="58">: string[]</text><text x="36.5" y="1034.691" fill="#D9B8FF" font-family="sans-serif" font-size="14" font-weight="bold" textLength="152">do_region_features</text><text x="188.5" y="1034.691" fill="#D9B8FF" font-family="sans-serif" font-size="14" textLength="58">: string[]</text><text x="36.5" y="1060.988" fill="#D9B8FF" font-family="sans-serif" font-size="14" font-weight="bold" textLength="118">do_region_slug</text><text x="154.5" y="1060.988" fill="#D9B8FF" font-family="sans-serif" font-size="14" textLength="48">: string</text><text x="36.5" y="1087.285" fill="#D9B8FF" font-family="sans-serif" font-size="14" font-weight="bold" textLength="88">is_available</text><text x="124.5" y="1087.285" fill="#D9B8FF" font-family="sans-serif" font-size="14" textLength="65">: boolean</text><rect width="223" height="74.086" x="7" y="538.55" fill="#3D176E" rx="2.5" ry="2.5" style="stroke:#000d19;stroke-width:.5"/><circle cx="22" cy="558.444" r="11" fill="#ADD1B2" style="stroke:#181818;stroke-width:1"/><path d="M24.969 564.085q-.578.297-1.219.438-.64.156-1.344.156-2.5 0-3.828-1.64-1.312-1.657-1.312-4.782t1.312-4.781q1.328-1.657 3.828-1.657.703 0 1.344.157.656.156 1.219.453v2.719q-.625-.579-1.219-.844-.594-.281-1.219-.281-1.343 0-2.031 1.078-.687 1.062-.687 3.156t.687 3.172q.688 1.062 2.031 1.062.625 0 1.219-.265.594-.282 1.219-.86z"/><text x="41" y="564.33" fill="#D9B8FF" font-family="Helvetica" font-size="17" textLength="181">digitalocean_resource</text><path d="M8 578.339h221" style="stroke:#000d19;stroke-width:.5"/><text x="18" y="600.334" fill="#D9B8FF" font-family="sans-serif" font-size="14" font-weight="bold" textLength="27">urn</text><text x="45" y="600.334" fill="#D9B8FF" font-family="sans-serif" font-size="14" textLength="48">: string</text><rect width="198" height="39.789" x="180.5" y="438.76" fill="#3D176E" rx="2.5" ry="2.5" style="stroke:#000d19;stroke-width:.5"/><circle cx="195.5" cy="458.654" r="11" fill="#ADD1B2" style="stroke:#181818;stroke-width:1"/><path d="M198.469 464.295q-.578.297-1.219.438-.64.156-1.344.156-2.5 0-3.828-1.64-1.312-1.657-1.312-4.782t1.312-4.781q1.328-1.656 3.828-1.656.703 0 1.344.156.656.156 1.219.453v2.719q-.625-.579-1.219-.844-.594-.281-1.219-.281-1.344 0-2.031 1.078-.687 1.062-.687 3.156t.687 3.172q.688 1.062 2.031 1.062.625 0 1.219-.265.594-.281 1.219-.86z"/><text x="214.5" y="464.54" fill="#D9B8FF" font-family="Helvetica" font-size="17" textLength="156">phantom_resource</text><rect width="195" height="152.977" x="181" y="672.64" fill="#3D176E" rx="2.5" ry="2.5" style="stroke:#000d19;stroke-width:.5"/><circle cx="242.75" cy="692.534" r="11" fill="#ADD1B2" style="stroke:#181818;stroke-width:1"/><path d="M245.719 698.175q-.578.297-1.219.438-.64.156-1.344.156-2.5 0-3.828-1.64-1.312-1.657-1.312-4.782t1.312-4.781q1.328-1.657 3.828-1.657.703 0 1.344.157.656.156 1.219.453v2.719q-.625-.579-1.219-.844-.594-.281-1.219-.281-1.344 0-2.031 1.078-.687 1.062-.687 3.156t.687 3.172q.688 1.062 2.031 1.062.625 0 1.219-.265.594-.282 1.219-.86z"/><text x="268.25" y="698.42" fill="#D9B8FF" font-family="Helvetica" font-size="17" textLength="53">region</text><path d="M182 712.429h193" style="stroke:#000d19;stroke-width:.5"/><text x="192" y="734.424" fill="#D9B8FF" font-family="sans-serif" font-size="14" font-weight="bold" textLength="59">latitude</text><text x="251" y="734.424" fill="#D9B8FF" font-family="sans-serif" font-size="14" textLength="57">: double</text><text x="192" y="760.721" fill="#D9B8FF" font-family="sans-serif" font-size="14" font-weight="bold" textLength="84">long_name</text><text x="276" y="760.721" fill="#D9B8FF" font-family="sans-serif" font-size="14" textLength="48">: string</text><text x="192" y="787.018" fill="#D9B8FF" font-family="sans-serif" font-size="14" font-weight="bold" textLength="74">longitude</text><text x="266" y="787.018" fill="#D9B8FF" font-family="sans-serif" font-size="14" textLength="57">: double</text><text x="192" y="813.315" fill="#D9B8FF" font-family="sans-serif" font-size="14" font-weight="bold" textLength="108">region_in_use</text><text x="300" y="813.315" fill="#D9B8FF" font-family="sans-serif" font-size="14" textLength="65">: boolean</text><rect width="227" height="310.758" x="46" y="7" fill="#3D176E" rx="2.5" ry="2.5" style="stroke:#000d19;stroke-width:.5"/><circle cx="114.75" cy="26.895" r="11" fill="#ADD1B2" style="stroke:#181818;stroke-width:1"/><path d="M117.719 32.535q-.578.297-1.219.438-.64.156-1.344.156-2.5 0-3.828-1.64-1.312-1.657-1.312-4.782t1.312-4.781q1.328-1.656 3.828-1.656.703 0 1.344.156.656.156 1.219.453v2.719q-.625-.578-1.219-.844-.594-.281-1.219-.281-1.344 0-2.031 1.078-.687 1.062-.687 3.156t.687 3.172q.688 1.062 2.031 1.062.625 0 1.219-.265.594-.281 1.219-.86z"/><text x="140.25" y="32.78" fill="#D9B8FF" font-family="Helvetica" font-size="17" textLength="71">resource</text><path d="M47 46.789h225" style="stroke:#000d19;stroke-width:.5"/><text x="57" y="68.784" fill="#D9B8FF" font-family="sans-serif" font-size="14" font-weight="bold" textLength="29">age</text><text x="86" y="68.784" fill="#D9B8FF" font-family="sans-serif" font-size="14" textLength="66">: duration</text><text x="57" y="95.081" fill="#D9B8FF" font-family="sans-serif" font-size="14" font-weight="bold" textLength="43">atime</text><text x="100" y="95.081" fill="#D9B8FF" font-family="sans-serif" font-size="14" textLength="70">: datetime</text><text x="57" y="121.378" fill="#D9B8FF" font-family="sans-serif" font-size="14" font-weight="bold" textLength="43">ctime</text><text x="100" y="121.378" fill="#D9B8FF" font-family="sans-serif" font-size="14" textLength="70">: datetime</text><text x="57" y="147.675" fill="#D9B8FF" font-family="sans-serif" font-size="14" font-weight="bold" textLength="14">id</text><text x="71" y="147.675" fill="#D9B8FF" font-family="sans-serif" font-size="14" textLength="48">: string</text><text x="57" y="173.972" fill="#D9B8FF" font-family="sans-serif" font-size="14" font-weight="bold" textLength="33">kind</text><text x="90" y="173.972" fill="#D9B8FF" font-family="sans-serif" font-size="14" textLength="48">: string</text><text x="57" y="200.269" fill="#D9B8FF" font-family="sans-serif" font-size="14" font-weight="bold" textLength="90">last_access</text><text x="147" y="200.269" fill="#D9B8FF" font-family="sans-serif" font-size="14" textLength="66">: duration</text><text x="57" y="226.565" fill="#D9B8FF" font-family="sans-serif" font-size="14" font-weight="bold" textLength="90">last_update</text><text x="147" y="226.565" fill="#D9B8FF" font-family="sans-serif" font-size="14" textLength="66">: duration</text><text x="57" y="252.862" fill="#D9B8FF" font-family="sans-serif" font-size="14" font-weight="bold" textLength="48">mtime</text><text x="105" y="252.862" fill="#D9B8FF" font-family="sans-serif" font-size="14" textLength="70">: datetime</text><text x="57" y="279.159" fill="#D9B8FF" font-family="sans-serif" font-size="14" font-weight="bold" textLength="43">name</text><text x="100" y="279.159" fill="#D9B8FF" font-family="sans-serif" font-size="14" textLength="48">: string</text><text x="57" y="305.456" fill="#D9B8FF" font-family="sans-serif" font-size="14" font-weight="bold" textLength="34">tags</text><text x="91" y="305.456" fill="#D9B8FF" font-family="sans-serif" font-size="14" textLength="171">: dictionary[string, string]</text><g fill="none"><path d="M123.628 630.97c6.83 72.53 20.582 218.32 29.712 315.21" style="stroke:#ffaf37;stroke-width:2"/><path d="m121.94 613.05-4.286 18.483 11.947-1.125z" style="stroke:#ffaf37;stroke-width:2"/></g><g fill="none"><path d="M238.464 842.402c-16.3 37.56-28.764 66.298-45.064 103.878" style="stroke:#ffaf37;stroke-width:2"/><path d="m245.63 825.89-12.67 14.124 11.008 4.777z" style="stroke:#ffaf37;stroke-width:2"/></g><g fill="none"><path d="M142.274 336.171c-7.97 79.91-15.234 152.819-20.144 202.029" style="stroke:#ffaf37;stroke-width:2"/><path d="m144.06 318.26-7.757 17.316 11.941 1.19z" style="stroke:#ffaf37;stroke-width:2"/></g><g fill="none"><path d="M229.286 334.518c19.69 48.29 32.154 78.852 42.474 104.162" style="stroke:#ffaf37;stroke-width:2"/><path d="m222.49 317.85 1.24 18.933 11.112-4.53z" style="stroke:#ffaf37;stroke-width:2"/></g><g fill="none"><path d="M279.37 497.03c-.13 38.85-.38 110.1-.61 175.19" style="stroke:#ffaf37;stroke-width:2"/><path d="m279.43 479.03-6.06 17.98 12 .04z" style="stroke:#ffaf37;stroke-width:2"/></g></svg>
